X:15816
T:Spey in Spate
R:Reel
S:Tommy Peoples & Dermot Byrnes
H:
N:
D:Concert, Galway
Z:Adrian Scahill
M:4/4
L:1/8
K:D
D2FD A,DFA|dcBA ^GAFD|E2GE B,EGB|gecA ^GA=GE|\
D2FD A,DFA|dDcD BDAf|gee^d ecdB|AFGE D4:||\
d2fd AFF2|DFAd fagf|efge BGED|CEAc egfe|\
d2fd AFF2|DFAd fagf|geed ecdB|AFGE D4:||\
